X: 19057
T: Ireland's
R: reel
M: 4/4
K: Amajor
(3EFG|:A2A2 E2EE|D2D2 FEF=G|A2A2 E2E2|1 DDEC A,2 (3EFG:|2 DDEC A,2e2||
e2c2 Acea|f2d2 d2~f2|e2c2 ABcA|B2E2 E2e2|
e2c2 Acea|f2d2 f2=g2|a2b2 a=ged|c2A2 A4||

